images_Kids_svg/cmd/sc_formatpaintbrush.svg

<?xml version="1.0" encoding="UTF-8" standalone="no"?>
<svg
   xmlns:dc="http://purl.org/dc/elements/1.1/"
   xmlns:cc="http://creativecommons.org/ns#"
   xmlns:rdf="http://www.w3.org/1999/02/22-rdf-syntax-ns#"
   xmlns:svg="http://www.w3.org/2000/svg"
   xmlns="http://www.w3.org/2000/svg"
   xmlns:sodipodi="http://sodipodi.sourceforge.net/DTD/sodipodi-0.dtd"
   xmlns:inkscape="http://www.inkscape.org/namespaces/inkscape"
   width="16px"
   height="16px"
   viewBox="0 0 16 16"
   version="1.1"
   id="svg15"
   sodipodi:docname="sc_formatpaintbrush.svg"
   inkscape:version="0.92.4 (5da689c313, 2019-01-14)">
  <metadata
     id="metadata21">
    <rdf:RDF>
      <cc:Work
         rdf:about="">
        <dc:format>image/svg+xml</dc:format>
        <dc:type
           rdf:resource="http://purl.org/dc/dcmitype/StillImage" />
      </cc:Work>
    </rdf:RDF>
  </metadata>
  <defs
     id="defs19" />
  <sodipodi:namedview
     pagecolor="#ffffff"
     bordercolor="#666666"
     borderopacity="1"
     objecttolerance="10"
     gridtolerance="10"
     guidetolerance="10"
     inkscape:pageopacity="0"
     inkscape:pageshadow="2"
     inkscape:window-width="640"
     inkscape:window-height="480"
     id="namedview17"
     showgrid="false"
     inkscape:zoom="35.5"
     inkscape:cx="10.414403"
     inkscape:cy="10.150386"
     inkscape:current-layer="svg15" />
  <path
     inkscape:connector-curvature="0"
     id="path2"
     d="m 12.769531,1.417969 -3.710937,4.359375 1.164062,1.164062 4.359375,-3.710937 -0.0039,-0.00391 c 0.01563,-0.011718 0.03125,-0.027343 0.04687,-0.042968 0.5,-0.5 0.5,-1.308594 0,-1.808594 -0.5,-0.5 -1.308594,-0.5 -1.808594,0 -0.01563,0.015625 -0.03125,0.03125 -0.04297,0.046875 z m 1.289063,0.523437 c 0.207031,0.203125 0.207031,0.535156 0,0.738282 -0.203125,0.207031 -0.535156,0.207031 -0.738282,0 -0.207031,-0.203126 -0.207031,-0.535157 0,-0.738282 0.203126,-0.207031 0.535157,-0.207031 0.738282,0 z m 0,0"
     style="fill:#546170;fill-opacity:1;fill-rule:nonzero;stroke:none" />
  <path
     inkscape:connector-curvature="0"
     id="path4"
     d="M 6.328125,4.3125 11.6875,9.671875 7.402344,14.738281 c -0.261719,0.308594 -0.710938,0.351563 -0.96875,0.08984 L 1.171875,9.566406 C 0.910156,9.308594 0.953125,8.859375 1.261719,8.597656 Z m 0,0"
     style="fill:#ff6866;fill-opacity:1;fill-rule:nonzero;stroke:none" />
  <path
     inkscape:connector-curvature="0"
     id="path6"
     d="M 1.21875,8.632812 C 1.214844,8.640625 1.207031,8.648438 1.199219,8.65625 1.195312,8.660156 1.191406,8.664062 1.191406,8.664062 1.183594,8.671875 1.175781,8.679688 1.171875,8.6875 1.167969,8.691406 1.164062,8.695312 1.164062,8.699219 1.152344,8.707031 1.144531,8.71875 1.136719,8.730469 1.128906,8.742188 1.121094,8.753906 1.113281,8.765625 c 0,0.00391 -0.00391,0.00391 -0.00391,0.00781 -0.00781,0.00781 -0.011719,0.019531 -0.015625,0.027343 -0.00391,0.00391 -0.00391,0.00781 -0.00781,0.00781 C 1.082026,8.820306 1.078126,8.828119 1.074217,8.835932 1.070307,8.839842 1.070307,8.843742 1.070307,8.84765 0.95312,9.089838 0.98437,9.3789 1.17187,9.5664 l 0.90625,0.910156 C 1.820312,10.214844 1.863281,9.765625 2.171875,9.503906 l 3.625,-3.0625 C 6.175781,6.117188 6.742188,6.140625 7.09375,6.496094 L 11.039062,10.4375 11.6875,9.671875 6.328125,4.3125 1.261719,8.597656 C 1.25,8.605469 1.242188,8.613281 1.230469,8.625 1.226562,8.628906 1.222656,8.632812 1.21875,8.632812 Z m 0,0"
     style="fill:#c54c54;fill-opacity:1;fill-rule:nonzero;stroke:none" />
  <path
     inkscape:connector-curvature="0"
     id="path8"
     d="m 7.027344,3.296875 5.675781,5.675781 c 0.160156,0.160156 0.160156,0.417969 0,0.574219 L 12.0625,10.191406 c -0.160156,0.160156 -0.417969,0.160156 -0.578125,0 L 5.808594,4.515625 C 5.648438,4.355469 5.648438,4.097656 5.808594,3.9375 L 6.453125,3.296875 c 0.15625,-0.160156 0.414063,-0.160156 0.574219,0 z m 0,0"
     style="fill:#546170;fill-opacity:1;fill-rule:nonzero;stroke:none" />
  <path
     inkscape:connector-curvature="0"
     id="path10"
     d="m 6.417969,3.90625 5.675781,5.675781 c 0.160156,0.160157 0.160156,0.414063 0,0.574219 l 0.609375,-0.609375 c 0.160156,-0.15625 0.160156,-0.414063 0,-0.574219 L 7.027344,3.296875 c -0.160156,-0.160156 -0.417969,-0.160156 -0.574219,0 L 5.84375,3.90625 c 0.160156,-0.160156 0.414062,-0.160156 0.574219,0 z m 0,0"
     style="fill:#546170;fill-opacity:1;fill-rule:nonzero;stroke:none" />
  <path
     inkscape:connector-curvature="0"
     id="path12"
     d="m 8.625,12.253906 c 0.230469,-0.234375 0.230469,-0.609375 0,-0.84375 -0.234375,-0.230468 -0.609375,-0.230468 -0.84375,0 l -0.585938,0.585938 c -0.234374,0.234375 -0.609374,0.234375 -0.84375,0 -0.230468,-0.230469 -0.230468,-0.605469 0,-0.839844 l 0.167969,-0.167969 c 0.195313,-0.195312 0.226563,-0.492187 0.089844,-0.722656 -0.023437,-0.04297 -0.054687,-0.08203 -0.089844,-0.117187 -0.234375,-0.234376 -0.609375,-0.234376 -0.84375,0 l -0.589843,0.585937 c -0.230469,0.230469 -0.605469,0.230469 -0.839844,0 C 4.015625,10.5 4.015625,10.125 4.246094,9.890625 L 4.414062,9.726562 c 0.230469,-0.234374 0.230469,-0.609374 0,-0.84375 -0.234374,-0.230468 -0.613281,-0.230468 -0.84375,0 l -1.542968,1.542969 4.199218,4.195313 z m 0,0"
     style="fill:#c7f559;fill-opacity:1;fill-rule:nonzero;stroke:none" />
</svg>

<?xml version="1.0" encoding="UTF-8"?>
<svg xmlns="http://www.w3.org/2000/svg" xmlns:xlink="http://www.w3.org/1999/xlink" width="16px" height="16px" viewBox="0 0 16 16" version="1.1">
<g id="surface1">
<path style=" stroke:none;fill-rule:nonzero;fill:rgb(33.333334%,38.431373%,44.705883%);fill-opacity:1;" d="M 12.769531 1.417969 L 9.058594 5.777344 L 10.222656 6.941406 L 14.582031 3.230469 L 14.578125 3.226562 C 14.59375 3.214844 14.609375 3.199219 14.625 3.183594 C 15.125 2.683594 15.125 1.875 14.625 1.375 C 14.125 0.875 13.316406 0.875 12.816406 1.375 C 12.800781 1.390625 12.785156 1.40625 12.773438 1.421875 Z M 14.058594 1.941406 C 14.265625 2.144531 14.265625 2.476562 14.058594 2.679688 C 13.855469 2.886719 13.523438 2.886719 13.320312 2.679688 C 13.113281 2.476562 13.113281 2.144531 13.320312 1.941406 C 13.523438 1.734375 13.855469 1.734375 14.058594 1.941406 Z M 14.058594 1.941406 "/>
<path style=" stroke:none;fill-rule:nonzero;fill:rgb(100%,41.568628%,40.000001%);fill-opacity:1;" d="M 6.328125 4.3125 L 11.6875 9.671875 L 7.402344 14.738281 C 7.140625 15.046875 6.691406 15.089844 6.433594 14.828125 L 1.171875 9.566406 C 0.910156 9.308594 0.953125 8.859375 1.261719 8.597656 Z M 6.328125 4.3125 "/>
<path style=" stroke:none;fill-rule:nonzero;fill:rgb(77.64706%,30.19608%,33.725491%);fill-opacity:1;" d="M 1.21875 8.632812 C 1.214844 8.640625 1.207031 8.648438 1.199219 8.65625 C 1.195312 8.660156 1.191406 8.664062 1.191406 8.664062 C 1.183594 8.671875 1.175781 8.679688 1.171875 8.6875 C 1.167969 8.691406 1.164062 8.695312 1.164062 8.699219 C 1.152344 8.707031 1.144531 8.71875 1.136719 8.730469 C 1.128906 8.742188 1.121094 8.753906 1.113281 8.765625 C 1.113281 8.769531 1.109375 8.769531 1.109375 8.773438 C 1.101562 8.78125 1.097656 8.792969 1.09375 8.800781 C 1.089844 8.804688 1.089844 8.808594 1.085938 8.808594 C 1.082031 8.820312 1.078125 8.828125 1.074219 8.835938 C 1.070312 8.839844 1.070312 8.84375 1.070312 8.847656 C 0.953125 9.089844 0.984375 9.378906 1.171875 9.566406 L 2.078125 10.476562 C 1.820312 10.214844 1.863281 9.765625 2.171875 9.503906 L 5.796875 6.441406 C 6.175781 6.117188 6.742188 6.140625 7.09375 6.496094 L 11.039062 10.4375 L 11.6875 9.671875 L 6.328125 4.3125 L 1.261719 8.597656 C 1.25 8.605469 1.242188 8.613281 1.230469 8.625 C 1.226562 8.628906 1.222656 8.632812 1.21875 8.632812 Z M 1.21875 8.632812 "/>
<path style=" stroke:none;fill-rule:nonzero;fill:rgb(33.333334%,38.431373%,44.705883%);fill-opacity:1;" d="M 7.027344 3.296875 L 12.703125 8.972656 C 12.863281 9.132812 12.863281 9.390625 12.703125 9.546875 L 12.0625 10.191406 C 11.902344 10.351562 11.644531 10.351562 11.484375 10.191406 L 5.808594 4.515625 C 5.648438 4.355469 5.648438 4.097656 5.808594 3.9375 L 6.453125 3.296875 C 6.609375 3.136719 6.867188 3.136719 7.027344 3.296875 Z M 7.027344 3.296875 "/>
<path style=" stroke:none;fill-rule:nonzero;fill:rgb(33.333334%,38.431373%,44.705883%);fill-opacity:1;" d="M 6.417969 3.90625 L 12.09375 9.582031 C 12.253906 9.742188 12.253906 9.996094 12.09375 10.15625 L 12.703125 9.546875 C 12.863281 9.390625 12.863281 9.132812 12.703125 8.972656 L 7.027344 3.296875 C 6.867188 3.136719 6.609375 3.136719 6.453125 3.296875 L 5.84375 3.90625 C 6.003906 3.746094 6.257812 3.746094 6.417969 3.90625 Z M 6.417969 3.90625 "/>
<path style=" stroke:none;fill-rule:nonzero;fill:rgb(78.039217%,96.470588%,35.294119%)F;fill-opacity:1;" d="M 8.625 12.253906 C 8.855469 12.019531 8.855469 11.644531 8.625 11.410156 C 8.390625 11.179688 8.015625 11.179688 7.78125 11.410156 L 7.195312 11.996094 C 6.960938 12.230469 6.585938 12.230469 6.351562 11.996094 C 6.121094 11.765625 6.121094 11.390625 6.351562 11.15625 L 6.519531 10.988281 C 6.714844 10.792969 6.746094 10.496094 6.609375 10.265625 C 6.585938 10.222656 6.554688 10.183594 6.519531 10.148438 C 6.285156 9.914062 5.910156 9.914062 5.675781 10.148438 L 5.085938 10.734375 C 4.855469 10.964844 4.480469 10.964844 4.246094 10.734375 C 4.015625 10.5 4.015625 10.125 4.246094 9.890625 L 4.414062 9.726562 C 4.644531 9.492188 4.644531 9.117188 4.414062 8.882812 C 4.179688 8.652344 3.800781 8.652344 3.570312 8.882812 L 2.027344 10.425781 L 6.226562 14.621094 Z M 8.625 12.253906 "/>
</g>
</svg>
